X:152
T:B152-  The Frog Galliard
Q:1/4=120
L:1/4
M:3/4
K:Gmixolydian
B2A|G2^F|F2G|A3|\
B2d|c2B|A2B|A3|\
B2A|G2^F|E2G|A3|\
Bd(c|c/2)c/2BA|(G3|G3):|\
c2c|c2e|d2e|d2z|\
c3/2c/2B|AcB|(A3|A3)|\
B2A|G2^F|E2G|A3|\
Bd(c|c/2)c/2BA|(G3|G3)|]
